contributed-vectors/coin_master.svg

<svg width="192" height="192" viewBox="0 0 192 192" fill="none" xmlns="http://www.w3.org/2000/svg">
<g clip-path="url(#clip0)">
<path fill-rule="evenodd" clip-rule="evenodd" d="M173 29V162C173 167.52 168.53 172 163 172H30C29.57 172 29.15 171.97 28.74 171.92C27.8 171.81 26.9 171.56 26.06 171.2C22.5 169.66 20 166.13 20 162V29C20 23.47 24.48 19 30 19H163C168.53 19 173 23.47 173 29Z" fill="#9ABEFF"/>
<path d="M167.08 157.19C164.87 155.54 162.67 153.88 160.46 152.23C160.41 152.19 160.36 152.15 160.31 152.11C160.26 152.08 160.21 152.03 160.16 152C156.83 149.51 153.5 147.02 150.17 144.52C146.22 141.56 142.26 138.6 138.3 135.65C137.76 135.24 137.21 134.83 136.67 134.43C137.28 133.87 138.12 133.07 139.08 132.07C139.71 131.42 140.39 130.68 141.12 129.85C144.27 126.25 148.16 120.98 151.01 114.29C152.97 109.7 154.44 104.43 154.85 98.57C154.95 97.08 155.91 81.37 149.59 73.32C148.98 72.55 146.71 69.82 143.54 66.4C142.91 65.71 142.23 65 141.53 64.27C139.91 62.59 138.52 61.23 137.59 60.33C137.58 60.13 137.57 59.94 137.57 59.74C137.54 58.71 137.52 57.67 137.5 56.62C137.43 50.66 137.67 44.97 138.13 39.57C139.37 39.93 141.19 40.31 143.39 40.28C145.84 40.25 148.29 40.23 149.04 38.85C150.04 37.01 147.41 33.83 146.35 32.54C145.07 31 143.74 29.96 142.73 29.3C137.32 26.68 132.66 25.59 129.46 25.08C124.9 24.36 123.06 24.78 122.22 25.02C118.55 26.07 116.58 28.65 113.94 31.71C110.08 36.2 106.56 40.28 102.29 43.61C99.7498 45.6 93.9198 50.04 85.5098 51.06C83.3598 51.32 81.5498 51.3 80.2798 51.23C78.2498 47.51 75.9898 45.16 74.3498 43.72C73.3298 42.83 72.3998 42.17 68.1498 39.42C65.1998 37.51 62.7298 35.93 60.9598 34.82C60.4098 34.42 59.3698 33.82 58.0698 33.87C58.0698 33.87 56.8298 33.91 55.5898 34.77C46.2598 41.21 45.3898 53.7 45.3898 53.7C45.0198 59.08 46.2298 63.93 48.6698 73.31C48.7398 73.61 48.8198 73.9 48.8998 74.21C49.2698 75.6 50.2798 79.38 50.5298 84.49C50.5398 84.57 50.5498 84.65 50.5498 84.74C50.6198 86.4 50.5998 87.79 50.5598 88.77C50.5598 88.83 50.5598 88.89 50.5498 88.95V89.02C50.5398 89.04 50.5298 89.06 50.5198 89.08C42.0598 106.62 33.8398 128.39 28.8298 154.06C27.6698 159.94 26.7698 165.66 26.0698 171.19C26.9098 171.56 27.7998 171.8 28.7498 171.91C29.1498 171.97 29.5798 172 29.9998 172H162.74C164.63 169.36 166.43 165.81 166.97 161.47C167.05 160.83 167.1 160.2 167.12 159.61C167.15 158.76 167.13 157.96 167.08 157.19ZM116.11 78.87C116.51 78.39 117.09 77.84 117.92 77.35C124.48 74.32 131.04 71.31 137.61 68.28C138.66 67.8 139.73 67.3 140.78 66.82C141.05 67.02 141.34 67.26 141.65 67.52C142.56 68.29 143.58 69.32 144.52 70.65C147.78 75.22 149.28 82.09 146.87 87.93C143.1 97.04 130.58 101.78 122.36 97.26C117.28 94.47 115.44 89.02 114.88 87.06C114.69 86.4 113.51 81.98 116.11 78.87Z" fill="#FFB0AC"/>
<path d="M146.87 87.92C143.1 97.03 130.58 101.77 122.36 97.25C117.28 94.46 115.44 89.01 114.88 87.05C114.69 86.4 113.51 81.98 116.11 78.86C116.51 78.38 117.09 77.83 117.92 77.34C124.48 74.31 131.04 71.3 137.61 68.27C138.32 68.25 138.9 68.18 139.34 68.12C140.32 67.98 140.94 67.88 141.64 67.51C142.55 68.28 143.57 69.31 144.51 70.64C147.79 75.21 149.29 82.08 146.87 87.92Z" fill="#FF837D"/>
<path d="M129.6 90.58C128.71 90.58 127.87 90.01 127.58 89.12L125.44 82.58C125.07 81.46 125.68 80.26 126.8 79.9C127.92 79.54 129.12 80.14 129.48 81.26L131.62 87.8C131.99 88.92 131.38 90.12 130.26 90.48C130.04 90.54 129.82 90.58 129.6 90.58Z" fill="#7A1B1C"/>
<path d="M138.67 85.78C137.8 85.78 136.99 85.25 136.67 84.38L134.7 78.98C134.3 77.88 134.86 76.66 135.97 76.25C137.07 75.85 138.29 76.41 138.7 77.52L140.67 82.92C141.07 84.02 140.51 85.24 139.4 85.65C139.16 85.74 138.92 85.78 138.67 85.78Z" fill="#7A1B1C"/>
<path d="M121.95 101.42C121.45 102.1 120.68 103.08 119.65 104.17C118.5 105.38 115.7 108.32 111.93 110.35C111.07 109.49 110.23 108.82 109.45 108.28C103.48 104.18 96.3298 104.67 91.4498 105.75C85.9798 100.14 84.3798 93.35 83.8398 90.24H86.3598C86.7698 90.91 87.3998 91.87 88.2798 92.93C88.3998 93.07 88.5198 93.21 88.6598 93.36V93.37C88.8298 94.09 89.0398 94.84 89.3098 95.62C90.6898 99.57 92.8698 102.34 94.4098 103.96C98.3598 103.99 102.31 104.04 106.26 104.07C107.38 103.49 108.5 102.91 109.63 102.33C115.68 102.61 120.78 101.65 121.95 101.42Z" fill="black"/>
<path d="M109.63 102.31C108.51 102.89 107.39 103.47 106.26 104.05C102.31 104.02 98.3602 103.97 94.4102 103.94C92.8702 102.32 90.6902 99.55 89.3102 95.6C89.0402 94.82 88.8302 94.07 88.6602 93.35C92.1702 97.37 96.2802 99.09 98.4802 100C102.1 101.5 106.03 102.13 109.63 102.31Z" fill="white"/>
<path d="M111.93 110.34C109.42 111.69 106.49 112.64 103.34 112.42C98.5399 112.09 95.2499 109.2 92.8899 107.12C92.3799 106.67 91.8999 106.21 91.4399 105.74C96.3199 104.66 103.48 104.18 109.44 108.27C110.23 108.81 111.07 109.48 111.93 110.34Z" fill="#B02A3C"/>
<path d="M78.68 132.05C78.03 132.95 76.43 133.18 75.22 132.21C71.32 130.14 67.94 128.83 65.57 128.01C59.12 125.79 54.36 124.22 49.06 125.66C45.69 126.57 43.46 128.33 42.4 129.19C34.91 135.21 33.73 144.9 29.21 169.37C29.06 170.22 28.9 171.07 28.74 171.92C27.8 171.81 26.9 171.56 26.06 171.2C22.5 169.66 20 166.13 20 162V160.93C20.17 160.89 20.33 160.87 20.48 160.86C21.67 157.35 23.07 153.64 24.72 149.78C26.06 146.64 27.45 143.69 28.83 140.94C28.92 137.06 29.02 133.17 29.1 129.29C28.8 129.19 25.1 127.82 24.11 123.97C23.29 120.73 24.88 117.75 26.69 116.18C27.32 115.64 27.94 115.3 28.39 115.08V107.79C29.85 105.86 31.53 103.87 33.44 101.87C39.29 95.74 45.42 91.59 50.56 88.79C50.58 88.78 50.59 88.77 50.6 88.76C50.58 88.83 50.57 88.9 50.55 88.96C50.54 89 50.53 89.05 50.52 89.09C49.07 95.04 48.11 97.69 47.48 99.01C46.8 100.44 46.48 102 45.86 103.46C45.75 103.72 45.61 104.16 45.59 104.71C45.57 105.25 45.68 105.67 45.78 105.94C47.02 106.87 48.88 108.24 51.2 109.81C55.99 113.04 56.98 113.24 61.82 116.27C70.76 121.86 75.05 125.97 76.54 127.46C77.46 128.37 78.19 129.14 78.68 129.68C79.13 130.47 79.13 131.41 78.68 132.05Z" fill="#56595B"/>
<path d="M162.59 148.16C158.53 157.93 148.88 164.81 137.63 164.81C122.7 164.81 110.6 152.71 110.6 137.79C110.6 124.39 120.34 113.28 133.12 111.14C121.88 113.99 113.57 124.17 113.57 136.29C113.57 150.61 125.19 162.23 139.52 162.23C149.57 162.23 158.29 156.51 162.59 148.16Z" fill="#C39A54"/>
<path d="M164.65 137.79C164.65 141.46 163.92 144.96 162.58 148.16C158.28 156.52 149.57 162.24 139.51 162.24C125.18 162.24 113.56 150.62 113.56 136.3C113.56 124.18 121.87 114 133.11 111.15C134.57 110.89 136.08 110.77 137.61 110.77C152.55 110.76 164.65 122.85 164.65 137.79Z" fill="#F9DE81"/>
<path d="M124.83 151.79C124.48 153.82 123.65 155.36 123.01 156.31C122.96 156.4 122.9 156.48 122.85 156.56C122.03 157.16 121.16 157.81 120.27 158.51C118.11 160.22 115.81 162.25 113.47 164.62C110.96 167.17 108.85 169.68 107.11 172H92.1799C88.9299 168.03 83.6699 160.18 85.3299 152.27C85.7599 150.24 86.6399 146.06 89.8699 144.88C92.2199 144.02 94.6399 145.2 95.5399 145.7C96.1099 145.14 96.9899 144.32 98.1399 143.46C98.1399 143.46 103.26 139.66 110.62 139C111.61 138.91 112.63 138.88 113.71 138.93C115.52 139 117.43 139.28 119.41 139.86C120.46 140.17 121.59 140.63 121.88 141.59C122.36 143.14 120.26 144.92 120 145.14C119.89 145.36 119.75 145.71 119.71 146.17C119.69 146.4 119.71 146.6 119.74 146.77C121.43 146.03 123.23 146 124.26 146.93C125.47 148.03 125.13 150.03 124.83 151.79Z" fill="#56595B"/>
<path d="M173 136.27V149.66C172.52 151.85 171.89 153.76 171.25 155.32C170.04 157.05 168.64 158.5 167.13 159.6C164.12 161.81 160.7 162.68 157.7 161.84C156.8 161.59 155.29 161.01 153.73 159.48C153.58 159.33 153.42 159.17 153.26 159C154.88 158.11 157.32 156.47 159.35 153.62C159.72 153.11 160.03 152.6 160.31 152.12C160.53 151.73 160.73 151.35 160.9 150.99C161.01 150.74 161.12 150.51 161.21 150.28C160.97 149.27 158.46 138.7 159.46 136.24C159.65 135.79 160.07 134.73 160.89 134.6C161.21 134.54 161.51 134.66 161.71 134.76C161.78 134.2 161.68 133.8 161.6 133.55C161.42 133.04 161.08 132.58 160.78 132.25C160.47 131.92 160.22 131.71 160.21 131.71C160.98 129.36 161.03 129.25 161.03 129.25C161.34 128.6 161.93 128.02 162.66 127.58C163.76 126.93 165.16 126.58 166.37 126.76C169.68 127.25 171.32 131.59 172.4 134.44C172.64 135.07 172.84 135.69 173 136.27Z" fill="#56595B"/>
<path d="M143.54 66.39C143.23 66.58 142.91 66.76 142.6 66.95C142 67.3 141.71 67.48 141.66 67.5C140.95 67.87 140.33 67.97 139.36 68.11C138.92 68.18 138.33 68.25 137.63 68.26C130.31 68.51 122.98 68.77 115.67 69.02C114.54 69.99 112.89 71.46 111.02 73.38C106.84 77.65 106.17 79.38 103.74 80.78C101.33 82.17 99.0799 82.14 94.3599 81.93C81.7999 81.38 76.6399 80.86 76.6399 80.86C64.8399 79.69 61.7899 79.26 57.3899 80.78C54.3299 81.83 52.0399 83.35 50.5499 84.48C49.9099 84.29 49.2799 84.06 48.7999 83.49C47.9699 82.52 47.8599 81.03 48.5099 79.71C47.8899 81 46.7699 82.86 44.7699 84.32C42.8199 85.72 41.3999 85.77 39.2999 86.83C37.6799 87.64 35.4599 89.15 33.2999 92.22C32.8199 91.91 31.7199 91.07 31.2899 89.63C31.1699 89.24 30.8699 88.07 31.6099 86.14C33.0099 82.48 36.4299 80.46 38.5199 79.27C39.9099 78.47 42.0799 77.42 44.9799 76.72C44.8099 76.59 44.5399 76.42 44.1999 76.26C42.2199 75.35 40.2899 76.05 38.5199 76.46C37.0499 76.82 31.5899 78.12 29.6799 75.97C29.1099 75.33 28.9699 74.51 28.9399 73.88C29.2399 72.99 30.1299 70.74 32.3499 69.56C33.6699 68.85 35.0999 68.72 37.3299 69.02C39.5899 69.33 44.3299 69.96 48.6899 73.3C48.7699 73.48 49.3099 74.69 50.6899 75.11C51.8799 75.48 52.8699 75.01 53.0799 74.91C56.3599 73.72 59.6599 72.54 62.9699 71.36C77.3399 66.23 91.6099 61.32 105.77 56.6C108.05 55.28 109.71 53.98 110.79 53.06C115.16 49.35 115.95 46.74 119.47 45.78C120.57 45.48 121.62 45.43 123.66 45.33C126.45 45.19 127.83 45.12 128.93 45.45C133.32 46.78 135.42 53.08 136.46 56.24C137.14 58.27 136.93 58.52 137.52 59.61C137.54 59.65 137.56 59.69 137.59 59.72C137.59 59.92 137.6 60.11 137.61 60.31C138.54 61.21 139.93 62.57 141.55 64.25C142.23 64.99 142.91 65.71 143.54 66.39Z" fill="#56595B"/>
<path d="M108.26 72.41C107.82 75.5 105.58 78.34 102.45 79.2C100.38 79.77 98.12 79.4 96.29 78.41C97.87 78.61 99.53 78.4 100.89 77.8C101.26 77.65 104.41 76.19 104.6 73.69C104.71 72.19 103.72 70.87 103.07 70.03C101.62 68.11 100.42 68.16 100.04 66.75C99.73 65.59 100.31 64.73 100.35 64.06C101.7 63.69 103.21 63.66 104.68 64.4C107.66 65.89 108.65 69.59 108.26 72.41Z" fill="white"/>
<path d="M131.27 63.3C131.08 63.95 130.6 65.63 129.19 66.6C128.21 67.26 126.91 67.51 125.53 67.4C126.52 66.75 127.3 65.77 127.74 64.72C128.5 62.9 128.49 60.29 127.13 59.08C126.09 58.16 124.58 58.29 124.33 57.31C124.17 56.69 124.68 56.28 124.45 55.91C124.08 55.31 122.3 55.66 121.08 56.07C120.46 56.28 119.2 56.71 118.02 57.41C118.31 56.63 118.75 55.88 119.37 55.23C120.65 53.9 122.22 53.5 122.93 53.37C123.26 53.36 127.83 53.37 130.22 57.04C130.54 57.53 132.17 60.16 131.27 63.3Z" fill="white"/>
<path d="M104.59 73.68C104.4 76.19 101.25 77.64 100.88 77.79C99.5198 78.39 97.8598 78.61 96.2798 78.4C94.4498 77.43 93.0298 75.85 92.6198 73.96C91.8098 70.35 95.0398 67.3 95.6198 66.77C95.9198 66.49 97.8698 64.7 100.34 64.04C100.3 64.7 99.7098 65.57 100.03 66.73C100.41 68.14 101.61 68.09 103.06 70.01C103.71 70.86 104.7 72.18 104.59 73.68Z" fill="black"/>
<path d="M127.75 64.72C127.31 65.77 126.53 66.74 125.54 67.4C125.53 67.39 125.53 67.4 125.53 67.4C122.44 67.16 118.97 65.14 117.95 62.05C117.52 60.72 117.46 59.01 118.03 57.43C119.21 56.72 120.47 56.3 121.09 56.09C122.31 55.68 124.1 55.33 124.46 55.93C124.69 56.3 124.18 56.71 124.34 57.33C124.59 58.31 126.1 58.18 127.14 59.1C128.49 60.29 128.51 62.9 127.75 64.72Z" fill="black"/>
<path d="M132.97 147.32C131.49 143.28 130 139.23 128.52 135.19C131.45 136.89 134.37 138.6 137.3 140.3C138.21 136.08 139.13 131.85 140.04 127.63C141.74 131.12 143.44 134.61 145.14 138.1C147.35 136.53 149.56 134.96 151.78 133.38C151.12 137.93 150.46 142.48 149.81 147.03C144.19 147.14 138.58 147.23 132.97 147.32Z" fill="#C39A54"/>
<path d="M126.72 133.94C127.902 133.94 128.86 132.982 128.86 131.8C128.86 130.618 127.902 129.66 126.72 129.66C125.538 129.66 124.58 130.618 124.58 131.8C124.58 132.982 125.538 133.94 126.72 133.94Z" fill="#C39A54"/>
<path d="M139.85 126.1C141.076 126.1 142.07 125.106 142.07 123.88C142.07 122.654 141.076 121.66 139.85 121.66C138.624 121.66 137.63 122.654 137.63 123.88C137.63 125.106 138.624 126.1 139.85 126.1Z" fill="#C39A54"/>
<path d="M153.04 131.42C154.161 131.42 155.07 130.511 155.07 129.39C155.07 128.269 154.161 127.36 153.04 127.36C151.919 127.36 151.01 128.269 151.01 129.39C151.01 130.511 151.919 131.42 153.04 131.42Z" fill="#C39A54"/>
<path d="M59.7602 37.9C63.1702 39.54 67.6202 42.21 71.8902 46.5C73.7702 48.39 75.3002 50.27 76.5402 52.01C73.8102 52.93 70.3302 54.45 66.7102 56.99C60.3802 61.44 56.8102 66.82 54.9902 70.11C53.3602 66.71 51.7402 61.99 51.5802 56.29C51.4702 52.6 51.3402 48.05 54.1702 43.51C55.9602 40.62 58.2602 38.86 59.7602 37.9Z" fill="#F4806D"/>
</g>
<defs>
<clipPath id="clip0">
<rect width="192" height="192" fill="white"/>
</clipPath>
</defs>
</svg>

<svg xmlns="http://www.w3.org/2000/svg" width="192" height="192" fill="none"><g clip-path="url(#a)"><path fill="#9ABEFF" fill-rule="evenodd" d="M173 29v133c0 5.52-4.47 10-10 10H30c-.43 0-.85-.03-1.26-.08a9.65 9.65 0 0 1-2.68-.72C22.5 169.66 20 166.13 20 162V29c0-5.53 4.48-10 10-10h133c5.53 0 10 4.47 10 10Z" clip-rule="evenodd"/><path fill="#FFB0AC" d="M167.08 157.19c-2.21-1.65-4.41-3.31-6.62-4.96l-.15-.12c-.05-.03-.1-.08-.15-.11-3.33-2.49-6.66-4.98-9.99-7.48-3.95-2.96-7.91-5.92-11.87-8.87-.54-.41-1.09-.82-1.63-1.22.61-.56 1.45-1.36 2.41-2.36.63-.65 1.31-1.39 2.04-2.22 3.15-3.6 7.04-8.87 9.89-15.56 1.96-4.59 3.43-9.86 3.84-15.72.1-1.49 1.06-17.2-5.26-25.25-.61-.77-2.88-3.5-6.05-6.92-.63-.69-1.31-1.4-2.01-2.13-1.62-1.68-3.01-3.04-3.94-3.94-.01-.2-.02-.39-.02-.59-.03-1.03-.05-2.07-.07-3.12-.07-5.96.17-11.65.63-17.05 1.24.36 3.06.74 5.26.71 2.45-.03 4.9-.05 5.65-1.43 1-1.84-1.63-5.02-2.69-6.31a16.387 16.387 0 0 0-3.62-3.24c-5.41-2.62-10.07-3.71-13.27-4.22-4.56-.72-6.4-.3-7.24-.06-3.67 1.05-5.64 3.63-8.28 6.69-3.86 4.49-7.38 8.57-11.65 11.9-2.54 1.99-8.37 6.43-16.78 7.45-2.15.26-3.96.24-5.23.17-2.03-3.72-4.29-6.07-5.93-7.51-1.02-.89-1.95-1.55-6.2-4.3-2.95-1.91-5.42-3.49-7.19-4.6-.55-.4-1.59-1-2.89-.95 0 0-1.24.04-2.48.9-9.33 6.44-10.2 18.93-10.2 18.93-.37 5.38.84 10.23 3.28 19.61.07.3.15.59.23.9.37 1.39 1.38 5.17 1.63 10.28.01.08.02.16.02.25.07 1.66.05 3.05.01 4.03 0 .06 0 .12-.01.18v.07l-.03.06c-8.46 17.54-16.68 39.31-21.69 64.98-1.16 5.88-2.06 11.6-2.76 17.13.84.37 1.73.61 2.68.72.4.06.83.09 1.25.09h132.74c1.89-2.64 3.69-6.19 4.23-10.53.08-.64.13-1.27.15-1.86.03-.85.01-1.65-.04-2.42Zm-50.97-78.32c.4-.48.98-1.03 1.81-1.52 6.56-3.03 13.12-6.04 19.69-9.07 1.05-.48 2.12-.98 3.17-1.46.27.2.56.44.87.7.91.77 1.93 1.8 2.87 3.13 3.26 4.57 4.76 11.44 2.35 17.28-3.77 9.11-16.29 13.85-24.51 9.33-5.08-2.79-6.92-8.24-7.48-10.2-.19-.66-1.37-5.08 1.23-8.19Z"/><path fill="#FF837D" d="M146.87 87.92c-3.77 9.11-16.29 13.85-24.51 9.33-5.08-2.79-6.92-8.24-7.48-10.2-.19-.65-1.37-5.07 1.23-8.19.4-.48.98-1.03 1.81-1.52 6.56-3.03 13.12-6.04 19.69-9.07.71-.02 1.29-.09 1.73-.15.98-.14 1.6-.24 2.3-.61.91.77 1.93 1.8 2.87 3.13 3.28 4.57 4.78 11.44 2.36 17.28Z"/><path fill="#7A1B1C" d="M129.6 90.58c-.89 0-1.73-.57-2.02-1.46l-2.14-6.54c-.37-1.12.24-2.32 1.36-2.68 1.12-.36 2.32.24 2.68 1.36l2.14 6.54c.37 1.12-.24 2.32-1.36 2.68-.22.06-.44.1-.66.1ZM138.67 85.78c-.87 0-1.68-.53-2-1.4l-1.97-5.4c-.4-1.1.16-2.32 1.27-2.73 1.1-.4 2.32.16 2.73 1.27l1.97 5.4a2.132 2.132 0 0 1-2 2.86Z"/><path fill="#000" d="M121.95 101.42c-.5.68-1.27 1.66-2.3 2.75-1.15 1.21-3.95 4.15-7.72 6.18-.86-.86-1.7-1.53-2.48-2.07-5.97-4.1-13.12-3.61-18-2.53-5.47-5.61-7.07-12.4-7.61-15.51h2.52c.41.67 1.04 1.63 1.92 2.69.12.14.24.28.38.43v.01c.17.72.38 1.47.65 2.25 1.38 3.95 3.56 6.72 5.1 8.34 3.95.03 7.9.08 11.85.11 1.12-.58 2.24-1.16 3.37-1.74 6.05.28 11.15-.68 12.32-.91Z"/><path fill="#fff" d="M109.63 102.31c-1.12.58-2.24 1.16-3.37 1.74-3.95-.03-7.9-.08-11.85-.11a23.322 23.322 0 0 1-5.1-8.34c-.27-.78-.48-1.53-.65-2.25 3.51 4.02 7.62 5.74 9.82 6.65 3.62 1.5 7.55 2.13 11.15 2.31Z"/><path fill="#B02A3C" d="M111.93 110.34c-2.51 1.35-5.44 2.3-8.59 2.08-4.8-.33-8.09-3.22-10.45-5.3-.51-.45-.99-.91-1.45-1.38 4.88-1.08 12.04-1.56 18 2.53.79.54 1.63 1.21 2.49 2.07Z"/><path fill="#56595B" d="M78.68 132.05c-.65.9-2.25 1.13-3.46.16-3.9-2.07-7.28-3.38-9.65-4.2-6.45-2.22-11.21-3.79-16.51-2.35-3.37.91-5.6 2.67-6.66 3.53-7.49 6.02-8.67 15.71-13.19 40.18-.15.85-.31 1.7-.47 2.55a9.65 9.65 0 0 1-2.68-.72C22.5 169.66 20 166.13 20 162v-1.07c.17-.04.33-.06.48-.07 1.19-3.51 2.59-7.22 4.24-11.08 1.34-3.14 2.73-6.09 4.11-8.84.09-3.88.19-7.77.27-11.65-.3-.1-4-1.47-4.99-5.32-.82-3.24.77-6.22 2.58-7.79.63-.54 1.25-.88 1.7-1.1v-7.29c1.46-1.93 3.14-3.92 5.05-5.92 5.85-6.13 11.98-10.28 17.12-13.08.02-.01.03-.02.04-.03-.02.07-.03.14-.05.2l-.03.13c-1.45 5.95-2.41 8.6-3.04 9.92-.68 1.43-1 2.99-1.62 4.45-.11.26-.25.7-.27 1.25-.02.54.09.96.19 1.23 1.24.93 3.1 2.3 5.42 3.87 4.79 3.23 5.78 3.43 10.62 6.46 8.94 5.59 13.23 9.7 14.72 11.19.92.91 1.65 1.68 2.14 2.22.45.79.45 1.73 0 2.37Z"/><path fill="#C39A54" d="M162.59 148.16c-4.06 9.77-13.71 16.65-24.96 16.65-14.93 0-27.03-12.1-27.03-27.02 0-13.4 9.74-24.51 22.52-26.65-11.24 2.85-19.55 13.03-19.55 25.15 0 14.32 11.62 25.94 25.95 25.94 10.05 0 18.77-5.72 23.07-14.07Z"/><path fill="#F9DE81" d="M164.65 137.79c0 3.67-.73 7.17-2.07 10.37-4.3 8.36-13.01 14.08-23.07 14.08-14.33 0-25.95-11.62-25.95-25.94 0-12.12 8.31-22.3 19.55-25.15 1.46-.26 2.97-.38 4.5-.38 14.94-.01 27.04 12.08 27.04 27.02Z"/><path fill="#56595B" d="M124.83 151.79c-.35 2.03-1.18 3.57-1.82 4.52-.05.09-.11.17-.16.25-.82.6-1.69 1.25-2.58 1.95a75.065 75.065 0 0 0-6.8 6.11 72.927 72.927 0 0 0-6.36 7.38H92.18c-3.25-3.97-8.51-11.82-6.85-19.73.43-2.03 1.31-6.21 4.54-7.39 2.35-.86 4.77.32 5.67.82.57-.56 1.45-1.38 2.6-2.24 0 0 5.12-3.8 12.48-4.46.99-.09 2.01-.12 3.09-.07 1.81.07 3.72.35 5.7.93 1.05.31 2.18.77 2.47 1.73.48 1.55-1.62 3.33-1.88 3.55-.11.22-.25.57-.29 1.03-.02.23 0 .43.03.6 1.69-.74 3.49-.77 4.52.16 1.21 1.1.87 3.1.57 4.86ZM173 136.27v13.39a34.41 34.41 0 0 1-1.75 5.66c-1.21 1.73-2.61 3.18-4.12 4.28-3.01 2.21-6.43 3.08-9.43 2.24-.9-.25-2.41-.83-3.97-2.36-.15-.15-.31-.31-.47-.48 1.62-.89 4.06-2.53 6.09-5.38a17.723 17.723 0 0 0 1.55-2.63c.11-.25.22-.48.31-.71-.24-1.01-2.75-11.58-1.75-14.04.19-.45.61-1.51 1.43-1.64.32-.06.62.06.82.16.07-.56-.03-.96-.11-1.21-.18-.51-.52-.97-.82-1.3-.31-.33-.56-.54-.57-.54.77-2.35.82-2.46.82-2.46.31-.65.9-1.23 1.63-1.67 1.1-.65 2.5-1 3.71-.82 3.31.49 4.95 4.83 6.03 7.68.24.63.44 1.25.6 1.83ZM143.54 66.39c-.31.19-.63.37-.94.56-.6.35-.89.53-.94.55-.71.37-1.33.47-2.3.61-.44.07-1.03.14-1.73.15-7.32.25-14.65.51-21.96.76a71.1 71.1 0 0 0-4.65 4.36c-4.18 4.27-4.85 6-7.28 7.4-2.41 1.39-4.66 1.36-9.38 1.15-12.56-.55-17.72-1.07-17.72-1.07-11.8-1.17-14.85-1.6-19.25-.08-3.06 1.05-5.35 2.57-6.84 3.7-.64-.19-1.27-.42-1.75-.99-.83-.97-.94-2.46-.29-3.78-.62 1.29-1.74 3.15-3.74 4.61-1.95 1.4-3.37 1.45-5.47 2.51-1.62.81-3.84 2.32-6 5.39-.48-.31-1.58-1.15-2.01-2.59-.12-.39-.42-1.56.32-3.49 1.4-3.66 4.82-5.68 6.91-6.87 1.39-.8 3.56-1.85 6.46-2.55-.17-.13-.44-.3-.78-.46-1.98-.91-3.91-.21-5.68.2-1.47.36-6.93 1.66-8.84-.49-.57-.64-.71-1.46-.74-2.09.3-.89 1.19-3.14 3.41-4.32 1.32-.71 2.75-.84 4.98-.54 2.26.31 7 .94 11.36 4.28.08.18.62 1.39 2 1.81 1.19.37 2.18-.1 2.39-.2 3.28-1.19 6.58-2.37 9.89-3.55a2140.67 2140.67 0 0 1 42.8-14.76c2.28-1.32 3.94-2.62 5.02-3.54 4.37-3.71 5.16-6.32 8.68-7.28 1.1-.3 2.15-.35 4.19-.45 2.79-.14 4.17-.21 5.27.12 4.39 1.33 6.49 7.63 7.53 10.79.68 2.03.47 2.28 1.06 3.37.02.04.04.08.07.11 0 .2.01.39.02.59.93.9 2.32 2.26 3.94 3.94.68.74 1.36 1.46 1.99 2.14Z"/><path fill="#fff" d="M108.26 72.41c-.44 3.09-2.68 5.93-5.81 6.79-2.07.57-4.33.2-6.16-.79 1.58.2 3.24-.01 4.6-.61.37-.15 3.52-1.61 3.71-4.11.11-1.5-.88-2.82-1.53-3.66-1.45-1.92-2.65-1.87-3.03-3.28-.31-1.16.27-2.02.31-2.69 1.35-.37 2.86-.4 4.33.34 2.98 1.49 3.97 5.19 3.58 8.01ZM131.27 63.3c-.19.65-.67 2.33-2.08 3.3-.98.66-2.28.91-3.66.8.99-.65 1.77-1.63 2.21-2.68.76-1.82.75-4.43-.61-5.64-1.04-.92-2.55-.79-2.8-1.77-.16-.62.35-1.03.12-1.4-.37-.6-2.15-.25-3.37.16-.62.21-1.88.64-3.06 1.34.29-.78.73-1.53 1.35-2.18 1.28-1.33 2.85-1.73 3.56-1.86.33-.01 4.9 0 7.29 3.67.32.49 1.95 3.12 1.05 6.26Z"/><path fill="#000" d="M104.59 73.68c-.19 2.51-3.34 3.96-3.71 4.11-1.36.6-3.02.82-4.6.61-1.83-.97-3.25-2.55-3.66-4.44-.81-3.61 2.42-6.66 3-7.19.3-.28 2.25-2.07 4.72-2.73-.04.66-.63 1.53-.31 2.69.38 1.41 1.58 1.36 3.03 3.28.65.85 1.64 2.17 1.53 3.67ZM127.75 64.72a6.107 6.107 0 0 1-2.21 2.68c-.01-.01-.01 0-.01 0-3.09-.24-6.56-2.26-7.58-5.35-.43-1.33-.49-3.04.08-4.62 1.18-.71 2.44-1.13 3.06-1.34 1.22-.41 3.01-.76 3.37-.16.23.37-.28.78-.12 1.4.25.98 1.76.85 2.8 1.77 1.35 1.19 1.37 3.8.61 5.62Z"/><path fill="#C39A54" d="M132.97 147.32c-1.48-4.04-2.97-8.09-4.45-12.13 2.93 1.7 5.85 3.41 8.78 5.11.91-4.22 1.83-8.45 2.74-12.67l5.1 10.47c2.21-1.57 4.42-3.14 6.64-4.72-.66 4.55-1.32 9.1-1.97 13.65-5.62.11-11.23.2-16.84.29ZM126.72 133.94a2.14 2.14 0 1 0 0-4.28 2.14 2.14 0 0 0 0 4.28ZM139.85 126.1a2.22 2.22 0 1 0 0-4.44 2.22 2.22 0 0 0 0 4.44ZM153.04 131.42a2.03 2.03 0 1 0 0-4.06 2.03 2.03 0 0 0 0 4.06Z"/><path fill="#F4806D" d="M59.76 37.9c3.41 1.64 7.86 4.31 12.13 8.6 1.88 1.89 3.41 3.77 4.65 5.51-2.73.92-6.21 2.44-9.83 4.98-6.33 4.45-9.9 9.83-11.72 13.12-1.63-3.4-3.25-8.12-3.41-13.82-.11-3.69-.24-8.24 2.59-12.78 1.79-2.89 4.09-4.65 5.59-5.61Z"/></g><defs><clipPath id="a"><path fill="#fff" d="M0 0h192v192H0z"/></clipPath></defs></svg>
